X:1
T:Supplication, 88.88.88
T:Supplication, 88.88.88
T:George Merritt, before 1890
T:Public Domain Courtesy of the Cyber Hymnal™
C:George Merritt, before 1890
Z:Public Domain
Z:Courtesy of the Cyber Hymnal™
%%score ( 1 2 ) 3
L:1/8
Q:1/4=110
M:4/4
K:E
V:1 treble 
V:2 treble 
V:3 bass 
V:1
 [EG]2 | [EG]3 [EG] [EA]2 [EG]2 | [DF]2 [DF]2 [EG]2 [EB]2 | [Ee]2 [Ec]2 [EB]2 [EG]2 | %4
 [FB]2 [EG]2 [DF]2 [DF]2 | [E^A]3 [EA] [EG]2 [EA]2 | [DB]2 [DB]2 [Fc]2 [Fd]2 | %7
 [Ed]2 [Ec]2 [Ge]2 [Gd]2 | [Ec]3 [Ec] [DB]2 [DB]2 | [DF]3 [EG] [DA]2 [EG]2 | %10
 [EG]2 [EF]2 [DF]2 [EG]2 | [EA]2 [Ec]2 [EB]2 [EG]2 | [DG]3 [DF] !fermata!E2 |] %13
V:2
 x2 | x8 | x8 | x8 | x8 | x8 | x8 | x8 | x8 | x8 | x8 | x8 | x4 E2 |] %13
V:3
 [E,B,]2 | [E,B,]3 [E,B,] [E,C]2 [E,B,]2 | [B,,B,]2 [B,,B,]2 [E,B,]2 [E,G,]2 | %3
 [C,A,]2 [A,,A,]2 [E,G,]2 [E,B,]2 | [D,B,]2 [E,B,]2 [B,,B,]2 [B,,B,]2 | %5
 [F,C]3 [F,C] [F,B,]2 [F,C]2 | [G,B,]2 [G,B,]2 [F,^A,]2 [B,,B,]2 | [E,G,]2 [E,G,]2 [E,C]2 [E,B,]2 | %8
 [F,^A,]3 [F,A,] [B,,B,]2 [B,,B,]2 | [B,,B,]3 [B,,B,] [B,,B,]2 [E,B,]2 | %10
 [A,,C]2 [A,,C]2 [B,,B,]2 [E,B,]2 | [A,C]2 [A,,A,]2 [E,G,]2 [E,B,]2 | %12
 [B,,B,]3 [B,,A,] !fermata![E,G,]2 |] %13

